X: 23706
T: Lisheen, The
R: polka
M: 2/4
K: Gmajor
|:dg Bd/B/|GA Bd|fa e/f/g/e/|dB B2|
dg Bd/B/|GA Bd|fa ef|g2 g2:|
|:a2 f>e|de f2|fa e/f/g/e/|dB B2|
dg Bd/B/|GA Bd|fa ef|g2 g2:|

